X: 96
T: Honeysuckle Cottage
C: Jonathon Jensen
M:3/4
R:waltz
L:1/8
Q:1/4=120
Z:Alf Warnock - alf.warnock@rogers.com
K:Bb
P:A
f dc|"Bb"B2 g3f|"Dm"A3f dc|"Gm"B2 g3f|"Eb"G3d AG|
"Bb"F2 c3B|"Cm7"E2 c3B|"Bb"DF Bd "Eb"fe|"F7"d2 cf dc|
"Bb"B2 g3f|"Dm"A3f dc|"Gm"B2 g3f|"Eb"G3B AG|
"Bb"F2 c3B|"Cm7"E2 f3e|"F7"Fe dc BA|"Bb"B3f dc|
P:B
"Gm"B2 b3g|B2 c2 d2| "Cm"e2 g3e|"Eb6"G3B AG|
"F7"F2 a3g|c2 d2 e2| "Eb"g4 f2| "Bb"d3f c2|
"Gm"B2 b3g|B2 c2 d2| "Cm"e2 g3e|"Eb6"G3B AG|
"Bb"F2 c3B|"Cm7"E2 f3e|"F7"Fe dc BA|"Bb"B6|]

